Badges/Roblox-Styled/Original/link-check-tests.svg

<svg width="116" height="32" viewBox="0 0 116 32" fill="none" xmlns="http://www.w3.org/2000/svg">
<g filter="url(#filter0_i_24_170)">
<rect width="116" height="32" rx="4" fill="#335FFF"/>
<path d="M19.5391 9.625C19.6745 9.625 19.7917 9.67448 19.8906 9.77344C19.9896 9.8724 20.0391 9.98958 20.0391 10.125C20.0391 10.2604 19.9896 10.3776 19.8906 10.4766C19.7917 10.5755 19.6745 10.625 19.5391 10.625H18.2891V13.9844C18.2891 14.0312 18.2995 14.0755 18.3203 14.1172L22.1016 20.2266C22.2422 20.4557 22.3021 20.7031 22.2812 20.9688C22.2604 21.2292 22.1667 21.4531 22 21.6406C21.8229 21.8385 21.5964 21.9583 21.3203 22C20.6484 22.1094 19.9271 22.1953 19.1562 22.2578C18.1615 22.3359 17.1198 22.375 16.0312 22.375C14.9479 22.375 13.9089 22.3359 12.9141 22.2578C12.1432 22.1953 11.4219 22.1094 10.75 22C10.474 21.9583 10.25 21.8385 10.0781 21.6406C9.90625 21.4531 9.8099 21.2292 9.78906 20.9688C9.76823 20.7031 9.82812 20.4557 9.96875 20.2266L10.3438 19.625H14.0391C14.1745 19.625 14.2917 19.5755 14.3906 19.4766C14.4896 19.3776 14.5391 19.263 14.5391 19.1328C14.5391 18.9974 14.4948 18.8828 14.4062 18.7891C14.3177 18.6953 14.2109 18.6406 14.0859 18.625H14.0391H10.9609L11.8906 17.125H15.0391C15.1745 17.125 15.2917 17.0755 15.3906 16.9766C15.4896 16.8776 15.5391 16.763 15.5391 16.6328C15.5391 16.4974 15.4948 16.3828 15.4062 16.2891C15.3177 16.1953 15.2109 16.1406 15.0859 16.125H15.0391H12.5078L13.4297 14.625H16.0391C16.1745 14.625 16.2917 14.5755 16.3906 14.4766C16.4896 14.3776 16.5391 14.263 16.5391 14.1328C16.5391 13.9974 16.4948 13.8828 16.4062 13.7891C16.3177 13.6953 16.2109 13.6406 16.0859 13.625H16.0391H13.7891V10.625H12.5391C12.3984 10.625 12.2786 10.5781 12.1797 10.4844C12.0859 10.3854 12.0391 10.2656 12.0391 10.125C12.0391 9.98438 12.0859 9.86719 12.1797 9.77344C12.2786 9.67448 12.3984 9.625 12.5391 9.625H19.5391Z" fill="white"/>
<path d="M31.927 20.11C29.837 20.11 28.374 18.614 28.374 16.15C28.374 13.686 29.837 12.19 31.927 12.19C33.148 12.19 34.193 12.663 34.842 13.521L33.775 14.577C33.214 13.917 32.642 13.642 31.927 13.642C30.662 13.642 29.892 14.522 29.892 16.15C29.892 17.778 30.662 18.658 31.927 18.658C32.642 18.658 33.214 18.383 33.775 17.723L34.842 18.779C34.193 19.637 33.148 20.11 31.927 20.11ZM37.1594 20H35.7514V12.19H37.1594V15.05L37.3354 15.116C37.6104 14.566 38.1384 14.126 38.9964 14.126C40.2834 14.126 40.9654 14.995 40.9654 16.293V20H39.5574V16.667C39.5574 15.798 39.1394 15.424 38.4024 15.424C37.8194 15.424 37.3574 15.798 37.1594 16.194V20ZM44.9866 20.11C43.2156 20.11 42.0606 18.911 42.0606 17.129C42.0606 15.347 43.2156 14.126 44.8656 14.126C46.6476 14.126 47.5386 15.347 47.5386 17.052V17.547H43.4796C43.6006 18.449 44.1726 18.834 44.9866 18.834C45.5806 18.834 46.0316 18.647 46.4826 18.273L47.3296 19.285C46.7136 19.857 45.8336 20.11 44.9866 20.11ZM44.8656 15.314C44.1616 15.314 43.6996 15.677 43.5236 16.403H46.1416C46.0536 15.71 45.5916 15.314 44.8656 15.314ZM51.216 20.11C49.478 20.11 48.334 18.9 48.334 17.118C48.334 15.336 49.478 14.126 51.216 14.126C52.118 14.126 52.987 14.489 53.493 15.138L52.547 16.084C52.228 15.699 51.755 15.424 51.183 15.424C50.347 15.424 49.764 16.04 49.764 17.118C49.764 18.196 50.347 18.812 51.183 18.812C51.755 18.812 52.228 18.537 52.547 18.152L53.493 19.098C52.987 19.747 52.118 20.11 51.216 20.11ZM59.5453 14.236L57.5323 16.92V17.052L59.5453 20H57.8843L56.1903 17.569H55.9153V20H54.5072V12.19H55.9153V16.392H56.1903L57.7853 14.236H59.5453ZM68.4997 12.3V13.73H66.2777V20H64.7817V13.73H62.5597V12.3H68.4997ZM71.0149 20.11C69.2439 20.11 68.0889 18.911 68.0889 17.129C68.0889 15.347 69.2439 14.126 70.8939 14.126C72.6759 14.126 73.5669 15.347 73.5669 17.052V17.547H69.5079C69.6289 18.449 70.2009 18.834 71.0149 18.834C71.6089 18.834 72.0599 18.647 72.5109 18.273L73.3579 19.285C72.7419 19.857 71.8619 20.11 71.0149 20.11ZM70.8939 15.314C70.1899 15.314 69.7279 15.677 69.5519 16.403H72.1699C72.0819 15.71 71.6199 15.314 70.8939 15.314ZM76.6076 20.11C75.6176 20.11 74.8696 19.758 74.2206 19.23L74.9686 18.218C75.4416 18.625 75.9806 18.9 76.6076 18.9C77.2016 18.9 77.5206 18.702 77.5206 18.339C77.5206 17.976 77.2566 17.866 76.8166 17.778L76.0796 17.624C75.0786 17.415 74.4846 16.92 74.4846 15.974C74.4846 14.83 75.3096 14.126 76.6406 14.126C77.4766 14.126 78.2356 14.379 78.8296 14.918L78.0486 15.886C77.6196 15.534 77.1576 15.336 76.6186 15.336C76.2116 15.336 75.8486 15.49 75.8486 15.82C75.8486 16.084 76.0246 16.26 76.5856 16.381L77.3996 16.557C78.2686 16.744 78.9176 17.195 78.9176 18.152C78.9176 19.384 78.0046 20.11 76.6076 20.11ZM82.606 18.812C82.936 18.812 83.189 18.768 83.486 18.691V19.934C83.145 20.044 82.804 20.11 82.386 20.11C81.088 20.11 80.329 19.373 80.329 17.965V15.446H79.383V14.236H80.329V12.74H81.737V14.236H83.365V15.446H81.737V17.943C81.737 18.526 82.089 18.812 82.606 18.812ZM86.3615 20.11C85.3715 20.11 84.6235 19.758 83.9745 19.23L84.7225 18.218C85.1955 18.625 85.7345 18.9 86.3615 18.9C86.9555 18.9 87.2745 18.702 87.2745 18.339C87.2745 17.976 87.0105 17.866 86.5705 17.778L85.8335 17.624C84.8325 17.415 84.2385 16.92 84.2385 15.974C84.2385 14.83 85.0635 14.126 86.3945 14.126C87.2305 14.126 87.9895 14.379 88.5835 14.918L87.8025 15.886C87.3735 15.534 86.9115 15.336 86.3725 15.336C85.9655 15.336 85.6025 15.49 85.6025 15.82C85.6025 16.084 85.7785 16.26 86.3395 16.381L87.1535 16.557C88.0225 16.744 88.6715 17.195 88.6715 18.152C88.6715 19.384 87.7585 20.11 86.3615 20.11Z" fill="white"/>
<path d="M99.625 11.1875C99.7812 11.1875 99.9141 11.2422 100.023 11.3516C100.133 11.4609 100.188 11.5938 100.188 11.75C100.188 11.9062 100.133 12.0391 100.023 12.1484C99.9141 12.2578 99.7812 12.3125 99.625 12.3125H96.0625V20.1875H103.938V16.625C103.938 16.4688 103.992 16.3359 104.102 16.2266C104.211 16.1172 104.344 16.0625 104.5 16.0625C104.656 16.0625 104.789 16.1172 104.898 16.2266C105.008 16.3359 105.062 16.4688 105.062 16.625V20.375C105.062 20.543 105.02 20.6992 104.934 20.8438C104.852 20.9883 104.738 21.1016 104.594 21.1836C104.449 21.2695 104.293 21.3125 104.125 21.3125H95.875C95.707 21.3125 95.5508 21.2695 95.4062 21.1836C95.2617 21.1016 95.1465 20.9883 95.0605 20.8438C94.9785 20.6992 94.9375 20.543 94.9375 20.375V12.125C94.9375 11.957 94.9785 11.8008 95.0605 11.6562C95.1465 11.5117 95.2617 11.3984 95.4062 11.3164C95.5508 11.2305 95.707 11.1875 95.875 11.1875H99.625ZM104.5 11.1875C104.656 11.1875 104.789 11.2422 104.898 11.3516C105.008 11.4609 105.062 11.5938 105.062 11.75V14C105.062 14.1562 105.008 14.2891 104.898 14.3984C104.789 14.5078 104.656 14.5625 104.5 14.5625C104.344 14.5625 104.211 14.5078 104.102 14.3984C103.992 14.2891 103.938 14.1562 103.938 14V13.1094L100.398 16.6484C100.289 16.7578 100.156 16.8125 100 16.8125C99.8438 16.8125 99.7109 16.7578 99.6016 16.6484C99.4922 16.5391 99.4375 16.4062 99.4375 16.25C99.4375 16.0938 99.4922 15.9609 99.6016 15.8516L103.141 12.3125H102.25C102.094 12.3125 101.961 12.2578 101.852 12.1484C101.742 12.0391 101.688 11.9062 101.688 11.75C101.688 11.5938 101.742 11.4609 101.852 11.3516C101.961 11.2422 102.094 11.1875 102.25 11.1875H104.5Z" fill="white"/>
</g>
<defs>
<filter id="filter0_i_24_170" x="0" y="-2" width="116" height="34" filterUnits="userSpaceOnUse" color-interpolation-filters="sRGB">
<feFlood flood-opacity="0" result="BackgroundImageFix"/>
<feBlend mode="normal" in="SourceGraphic" in2="BackgroundImageFix" result="shape"/>
<feColorMatrix in="SourceAlpha" type="matrix" values="0 0 0 0 0 0 0 0 0 0 0 0 0 0 0 0 0 0 127 0" result="hardAlpha"/>
<feOffset dy="-2"/>
<feGaussianBlur stdDeviation="1.65"/>
<feComposite in2="hardAlpha" operator="arithmetic" k2="-1" k3="1"/>
<feColorMatrix type="matrix" values="0 0 0 0 1 0 0 0 0 1 0 0 0 0 1 0 0 0 0.11 0"/>
<feBlend mode="normal" in2="shape" result="effect1_innerShadow_24_170"/>
</filter>
</defs>
</svg>

<svg xmlns="http://www.w3.org/2000/svg" width="116" height="32" fill="none">
  <g filter="url(#a)">
    <rect width="116" height="32" fill="#335fff" rx="4"/>
    <path fill="#fff" d="M19.54 9.625a.48.48 0 0 1 .35.148.48.48 0 0 1 .15.352.48.48 0 0 1-.15.352.48.48 0 0 1-.35.148h-1.25v3.36q0 .069.03.132l3.782 6.11q.21.343.18.742-.032.39-.282.672a1.1 1.1 0 0 1-.68.359 27 27 0 0 1-2.164.258q-1.491.117-3.125.117-1.625 0-3.117-.117A27 27 0 0 1 10.75 22a1.07 1.07 0 0 1-.672-.36 1.1 1.1 0 0 1-.289-.671q-.03-.399.18-.742l.375-.602h3.695a.48.48 0 0 0 .352-.148.47.47 0 0 0 .148-.344.48.48 0 0 0-.133-.344.52.52 0 0 0-.32-.164H10.96l.93-1.5h3.148a.48.48 0 0 0 .352-.148.47.47 0 0 0 .148-.344.48.48 0 0 0-.133-.344.52.52 0 0 0-.32-.164h-2.578l.922-1.5h2.61a.48.48 0 0 0 .35-.148.47.47 0 0 0 .15-.344.48.48 0 0 0-.134-.344.52.52 0 0 0-.32-.164h-2.297v-3h-1.25a.5.5 0 0 1-.36-.14.5.5 0 0 1-.14-.36q0-.21.14-.352a.5.5 0 0 1 .36-.148zM31.927 20.11c-2.09 0-3.553-1.496-3.553-3.96s1.463-3.96 3.553-3.96c1.221 0 2.266.473 2.915 1.331l-1.067 1.056c-.561-.66-1.133-.935-1.848-.935-1.265 0-2.035.88-2.035 2.508s.77 2.508 2.035 2.508c.715 0 1.287-.275 1.848-.935l1.067 1.056c-.649.858-1.694 1.331-2.915 1.331m5.232-.11h-1.408v-7.81h1.408v2.86l.176.066c.275-.55.803-.99 1.661-.99 1.287 0 1.97.869 1.97 2.167V20h-1.409v-3.333c0-.869-.418-1.243-1.155-1.243-.583 0-1.045.374-1.243.77zm7.828.11c-1.771 0-2.926-1.199-2.926-2.981s1.155-3.003 2.805-3.003c1.782 0 2.673 1.221 2.673 2.926v.495h-4.06c.122.902.694 1.287 1.508 1.287.594 0 1.045-.187 1.496-.561l.847 1.012c-.616.572-1.496.825-2.343.825m-.121-4.796c-.704 0-1.166.363-1.342 1.089h2.618c-.088-.693-.55-1.089-1.276-1.089m6.35 4.796c-1.738 0-2.882-1.21-2.882-2.992s1.144-2.992 2.882-2.992c.902 0 1.771.363 2.277 1.012l-.946.946a1.76 1.76 0 0 0-1.364-.66c-.836 0-1.419.616-1.419 1.694s.583 1.694 1.419 1.694a1.76 1.76 0 0 0 1.364-.66l.946.946c-.506.649-1.375 1.012-2.277 1.012m8.33-5.874-2.014 2.684v.132L59.545 20h-1.66l-1.695-2.431h-.275V20h-1.408v-7.81h1.408v4.202h.275l1.595-2.156zM68.5 12.3v1.43h-2.222V20h-1.496v-6.27H62.56V12.3zm2.515 7.81c-1.771 0-2.926-1.199-2.926-2.981s1.155-3.003 2.805-3.003c1.782 0 2.673 1.221 2.673 2.926v.495h-4.06c.122.902.694 1.287 1.508 1.287.594 0 1.045-.187 1.496-.561l.847 1.012c-.616.572-1.496.825-2.343.825m-.121-4.796c-.704 0-1.166.363-1.342 1.089h2.618c-.088-.693-.55-1.089-1.276-1.089m5.714 4.796c-.99 0-1.738-.352-2.387-.88l.748-1.012c.473.407 1.012.682 1.639.682.594 0 .913-.198.913-.561s-.264-.473-.704-.561l-.737-.154c-1.001-.209-1.595-.704-1.595-1.65 0-1.144.825-1.848 2.156-1.848.836 0 1.595.253 2.189.792l-.781.968c-.43-.352-.891-.55-1.43-.55-.407 0-.77.154-.77.484 0 .264.176.44.737.561l.814.176c.869.187 1.518.638 1.518 1.595 0 1.232-.913 1.958-2.31 1.958m5.998-1.298c.33 0 .583-.044.88-.121v1.243c-.341.11-.682.176-1.1.176-1.298 0-2.057-.737-2.057-2.145v-2.519h-.946v-1.21h.946V12.74h1.408v1.496h1.628v1.21h-1.628v2.497c0 .583.352.869.869.869m3.756 1.298c-.99 0-1.738-.352-2.387-.88l.748-1.012c.472.407 1.011.682 1.639.682.594 0 .913-.198.913-.561s-.265-.473-.705-.561l-.736-.154c-1.002-.209-1.596-.704-1.596-1.65 0-1.144.826-1.848 2.156-1.848.837 0 1.596.253 2.19.792l-.782.968c-.428-.352-.89-.55-1.43-.55-.406 0-.77.154-.77.484 0 .264.176.44.737.561l.814.176c.87.187 1.518.638 1.518 1.595 0 1.232-.913 1.958-2.31 1.958m13.264-8.922a.54.54 0 0 1 .398.164.54.54 0 0 1 .165.398.54.54 0 0 1-.165.398.54.54 0 0 1-.398.165h-3.562v7.874h7.875v-3.562a.54.54 0 0 1 .164-.398.54.54 0 0 1 .398-.165q.234 0 .398.165a.54.54 0 0 1 .164.398v3.75a.9.9 0 0 1-.128.469.9.9 0 0 1-.34.34.9.9 0 0 1-.469.128h-8.25a.9.9 0 0 1-.469-.128.93.93 0 0 1-.346-.34.93.93 0 0 1-.123-.469v-8.25q0-.252.124-.469a.93.93 0 0 1 .345-.34.9.9 0 0 1 .469-.129zm4.875 0q.234 0 .398.164a.54.54 0 0 1 .164.398V14a.54.54 0 0 1-.164.398.54.54 0 0 1-.398.165.54.54 0 0 1-.398-.165.54.54 0 0 1-.164-.398v-.89l-3.54 3.538a.54.54 0 0 1-.398.165.54.54 0 0 1-.398-.165.54.54 0 0 1-.165-.398q0-.235.165-.398l3.539-3.54h-.891a.54.54 0 0 1-.398-.164.54.54 0 0 1-.164-.398.54.54 0 0 1 .164-.398.54.54 0 0 1 .398-.165z"/>
  </g>
  <defs>
    <filter id="a" width="116" height="34" x="0" y="-2" color-interpolation-filters="sRGB" filterUnits="userSpaceOnUse">
      <feFlood flood-opacity="0" result="BackgroundImageFix"/>
      <feBlend in="SourceGraphic" in2="BackgroundImageFix" result="shape"/>
      <feColorMatrix in="SourceAlpha" result="hardAlpha" values="0 0 0 0 0 0 0 0 0 0 0 0 0 0 0 0 0 0 127 0"/>
      <feOffset dy="-2"/>
      <feGaussianBlur stdDeviation="1.65"/>
      <feComposite in2="hardAlpha" k2="-1" k3="1" operator="arithmetic"/>
      <feColorMatrix values="0 0 0 0 1 0 0 0 0 1 0 0 0 0 1 0 0 0 0.11 0"/>
      <feBlend in2="shape" result="effect1_innerShadow_24_170"/>
    </filter>
  </defs>
</svg>
